smiling-axolotl/src/assets/experience/NetflixNextWorld.svg

<svg width="582" height="201" viewBox="0 0 582 201" fill="none" xmlns="http://www.w3.org/2000/svg">
<path d="M249.349 29.0018C247.604 29.3048 245.829 29.3957 243.992 29.6376L238.389 13.4112V30.3341C236.644 30.5156 235.052 30.7578 233.399 31V0H238.053L244.42 17.5891V0H249.349V29.0018ZM258.993 11.3525C260.891 11.3525 263.8 11.2617 265.545 11.2617V16.1053C263.371 16.1053 260.83 16.1053 258.993 16.1962V23.4014C261.871 23.2198 264.749 22.9774 267.657 22.8866V27.5484L254.095 28.6082V0H267.657V4.84376H258.993V11.3525ZM285.873 4.84387H280.791V27.1251C279.138 27.1251 277.484 27.1251 275.893 27.1855V4.84387H270.811V0H285.873L285.873 4.84387ZM293.833 11.0196H300.537V15.8633H293.833V26.8527H289.026V0H302.711V4.84376H293.833V11.0196ZM310.671 22.6142C313.457 22.6746 316.273 22.8869 318.998 23.038V27.8213C314.62 27.5486 310.242 27.2765 305.773 27.1855V0H310.671V22.6142ZM323.131 28.1543C324.693 28.2453 326.346 28.3361 327.938 28.5175V0H323.131V28.1543ZM349.399 0L343.184 14.7432L349.399 31C347.562 30.7578 345.725 30.4248 343.888 30.122L340.367 21.1613L336.786 29.3957C335.01 29.0927 333.295 29.0018 331.52 28.7596L337.827 14.5614L332.132 0H337.398L340.612 8.14357L344.041 0L349.399 0Z" fill="#D81F26"/>
<path fill-rule="evenodd" clip-rule="evenodd" d="M240.538 160.539C254.74 160.537 264.745 167.478 264.745 180.447C264.745 193.416 254.74 200.355 240.538 200.355C226.975 200.355 216.331 193.417 216.331 180.447C216.331 167.477 226.883 160.541 240.538 160.539ZM240.538 168.538C232.692 168.538 226.331 173.871 226.331 180.447L226.336 180.754C226.527 187.086 232.616 192.191 240.171 192.352L240.538 192.355C248.261 192.355 254.546 187.188 254.74 180.754L254.745 180.447C254.745 173.974 248.581 168.705 240.904 168.542L240.538 168.538Z" fill="#0D0D0D"/>
<path d="M154.943 186.897L164.514 161.825H173.356L183.095 186.897L192.497 161.825H202.515L187.964 198.986H178.953L168.88 174.641L158.693 198.986H149.739L135.355 161.825H145.43L154.943 186.897Z" fill="#0D0D0D"/>
<path fill-rule="evenodd" clip-rule="evenodd" d="M310.271 161.825C314.688 162.424 323.521 165.544 323.521 173.239C323.521 182.858 316.631 185.979 314.52 185.979L326.092 198.986H314.212L304.137 186.991H293.841V198.986H284.357V161.825H310.271ZM293.841 179.511H308.492C310.27 179.511 313.314 178.14 313.314 174.479C313.314 170.817 310.27 169.479 308.492 169.479H293.841V179.511Z" fill="#0D0D0D"/>
<path d="M356.575 191.442H380.33V198.986H346.51V161.825H356.575V191.442Z" fill="#0D0D0D"/>
<path fill-rule="evenodd" clip-rule="evenodd" d="M425.826 161.825C425.923 161.825 445.044 161.87 445.044 180.405C445.044 198.941 425.923 198.986 425.826 198.986H401.266V161.825H425.826ZM411.285 190.709H424.903C424.944 190.709 435.559 190.689 435.56 180.406C435.56 170.123 424.944 170.104 424.903 170.104H411.285V190.709Z" fill="#0D0D0D"/>
<path fill-rule="evenodd" clip-rule="evenodd" d="M430.35 19.0244C430.35 19.2197 430.439 19.9726 430.571 21.0918C431.053 25.1711 432.108 34.1156 431.527 38.6523C430.787 44.4334 431.157 51.3706 433.608 51.4639C435.569 51.5379 437.509 43.9914 438.233 40.209C438.172 40.8618 437.993 43.1947 437.771 47.3018C437.55 51.4084 438.974 52.9189 439.714 53.1611H512.335V76.0752H473.587V99.3896C480.976 99.3043 488.246 100.353 495.346 101.377C501.872 102.318 508.254 103.239 514.453 103.239C524.273 103.239 525.929 103.036 526.074 99.2949C526.083 100.188 526.31 101.355 528.216 101.355C530.837 101.355 530.837 92.3978 530.837 82.5146C530.837 102.277 532.311 103.649 536.161 106.271C537.375 107.097 542.38 107.972 548.663 109.071C562.31 111.458 581.992 114.9 581.993 121.191C581.993 130.694 512.966 136.243 476.66 137.766C526.184 135.024 567.487 123.753 566.84 117.968C566.278 112.946 557.629 111.244 551.811 110.469C555.959 111.472 559.443 114.788 559.443 116.969C559.443 129.699 418.678 142.364 240.005 139.41C61.3313 136.456 17.5312 122.38 17.5312 116.998C17.5314 112.693 25.4392 110.445 31.2393 109.084C23.7677 109.143 9.23664 113.614 9.23633 117.816C9.23633 120.649 12.7921 122.091 15.877 123.342C16.4535 123.576 17.0139 123.803 17.5312 124.031C14.6717 124.031 0.00120218 121.439 3.17232e-09 116.968C-0.000459405 108.186 49.8883 102.495 58.5957 102.495C65.2665 102.495 66.8223 91.991 66.7871 86.0723C67.0532 98.0076 69.5421 100.443 72.5391 100.789C74.9869 101.071 87.6423 99.6904 93.6641 98.9648V53.1611H122.814L143.146 74.5137C146.578 74.5137 147.768 73.8554 147.768 55.3193C147.933 60.4076 148.778 71.5953 150.84 75.6396C152.902 79.6839 153.598 83.9564 153.688 85.5869L177.432 110.522V53.1611H205.68V135.194H213.329V53.1611H341.962L365.742 81.5635L389.606 53.1611H425.992C426.917 52.6586 429.083 49.3647 430.35 40.209C431.474 32.0755 431 27.1397 430.632 23.3037C430.482 21.7423 430.35 20.3628 430.35 19.0244ZM305.376 75.4932H242.848V88.6309H303.048V111.248H242.848V124.552H306.207V136.525H312.526L345.703 98.9414L305.376 53.1611V75.4932ZM349.115 135.299C351.495 135.381 361.139 135.375 380.675 134.7L365.742 116.969L349.115 135.299ZM122.814 129.724C126.866 130.3 140.567 131.731 162.951 132.843L122.814 89.1484V129.724ZM385.781 98.9414L415.386 132.764C420.164 132.674 436.277 131.575 443.736 131.037V76.0752H405.82L385.781 98.9414ZM473.587 128.21C488.138 126.658 517.064 122.103 516.359 116.295C515.653 110.486 487.55 106.156 473.587 104.717V128.21ZM93.6641 106.26C77.2544 108.201 60.4197 112.673 60.4785 116.262C60.5152 118.488 62.6499 119.771 64.4277 120.371C64.795 120.592 65.2548 120.727 65.8223 120.727C65.427 120.661 64.9422 120.545 64.4277 120.371C63.5035 119.815 63.164 118.709 63.1611 117.816C63.1473 113.41 81.274 110.998 87.6074 110.998C87.0874 111.022 69.2152 112.961 68.1504 117.816C67.0861 122.672 84.716 125.993 93.6641 127.046V106.26ZM549.393 110.171C550.108 110.254 550.927 110.351 551.811 110.469C551.022 110.278 550.21 110.171 549.393 110.171Z" fill="#0D0D0D"/>
</svg>

<svg xmlns="http://www.w3.org/2000/svg" width="582" height="201" fill="none"><path fill="#D81F26" d="M249.349 29.002c-1.745.303-3.52.394-5.357.636l-5.603-16.227v16.923c-1.745.182-3.337.424-4.99.666V0h4.654l6.367 17.59V0h4.929zm9.644-17.65c1.898 0 4.807-.09 6.552-.09v4.843c-2.174 0-4.715 0-6.552.091v7.205c2.878-.181 5.756-.424 8.664-.514v4.661l-13.562 1.06V0h13.562v4.844h-8.664zm26.88-6.508h-5.082v22.281c-1.653 0-3.307 0-4.898.06V4.845h-5.082V0h15.062zm7.96 6.176h6.704v4.843h-6.704v10.99h-4.807V0h13.685v4.844h-8.878zm16.838 11.594c2.786.06 5.602.273 8.327.424v4.783c-4.378-.272-8.756-.545-13.225-.636V0h4.898zm12.46 5.54c1.562.091 3.215.182 4.807.363V0h-4.807zM349.399 0l-6.215 14.743L349.399 31c-1.837-.242-3.674-.575-5.511-.878l-3.521-8.96-3.581 8.234c-1.776-.303-3.491-.394-5.266-.636l6.307-14.199L332.132 0h5.266l3.214 8.144L344.041 0z"/><path fill="#0D0D0D" fill-rule="evenodd" d="M240.538 160.539c14.202-.002 24.207 6.939 24.207 19.908s-10.005 19.908-24.207 19.908c-13.563 0-24.207-6.938-24.207-19.908s10.552-19.906 24.207-19.908m0 7.999c-7.846 0-14.207 5.333-14.207 11.909l.005.307c.191 6.332 6.28 11.437 13.835 11.598l.367.003c7.723 0 14.008-5.167 14.202-11.601l.005-.307c0-6.473-6.164-11.742-13.841-11.905z" clip-rule="evenodd"/><path fill="#0D0D0D" d="m154.943 186.897 9.571-25.072h8.842l9.739 25.072 9.402-25.072h10.018l-14.551 37.161h-9.011l-10.073-24.345-10.187 24.345h-8.954l-14.384-37.161h10.075z"/><path fill="#0D0D0D" fill-rule="evenodd" d="M310.271 161.825c4.417.599 13.25 3.719 13.25 11.414 0 9.619-6.89 12.74-9.001 12.74l11.572 13.007h-11.88l-10.075-11.995h-10.296v11.995h-9.484v-37.161zm-16.43 17.686h14.651c1.778 0 4.822-1.371 4.822-5.032s-3.044-5-4.822-5h-14.651z" clip-rule="evenodd"/><path fill="#0D0D0D" d="M356.575 191.442h23.755v7.544h-33.82v-37.161h10.065z"/><path fill="#0D0D0D" fill-rule="evenodd" d="M425.826 161.825c.097 0 19.218.045 19.218 18.58 0 18.536-19.121 18.581-19.218 18.581h-24.56v-37.161zm-14.541 28.884h13.618c.041 0 10.656-.02 10.657-10.303s-10.616-10.302-10.657-10.302h-13.618zM430.35 19.024c0 .196.089.949.221 2.068.482 4.08 1.537 13.024.956 17.56-.74 5.781-.37 12.719 2.081 12.812 1.961.074 3.901-7.473 4.625-11.255-.061.653-.24 2.986-.462 7.093-.221 4.106 1.203 5.617 1.943 5.86h72.621v22.913h-38.748V99.39c7.389-.086 14.659.963 21.759 1.987 6.526.941 12.908 1.862 19.107 1.862 9.82 0 11.476-.203 11.621-3.944.009.893.236 2.06 2.142 2.06 2.621 0 2.621-8.957 2.621-18.84 0 19.762 1.474 21.134 5.324 23.756 1.214.826 6.219 1.701 12.502 2.8 13.647 2.387 33.329 5.829 33.33 12.12 0 9.503-69.027 15.052-105.333 16.575 49.524-2.742 90.827-14.013 90.18-19.798-.562-5.022-9.211-6.724-15.029-7.499 4.148 1.003 7.632 4.319 7.632 6.5 0 12.73-140.765 25.395-319.438 22.441-178.674-2.954-222.474-17.03-222.474-22.412 0-4.305 7.908-6.553 13.708-7.914-7.471.059-22.002 4.53-22.003 8.732 0 2.833 3.556 4.275 6.641 5.526.576.234 1.137.461 1.654.689-2.86 0-17.53-2.592-17.531-7.063 0-8.782 49.888-14.473 58.596-14.473 6.67 0 8.226-10.504 8.191-16.423.266 11.936 2.755 14.371 5.752 14.717 2.448.282 15.103-1.099 21.125-1.824V53.16h29.15l20.332 21.353c3.432 0 4.622-.659 4.622-19.195.165 5.089 1.01 16.276 3.072 20.32s2.758 8.317 2.848 9.948l23.744 24.935v-57.36h28.248v82.032h7.649V53.161h128.633l23.78 28.403 23.864-28.403h36.386c.925-.502 3.091-3.796 4.358-12.952 1.124-8.134.65-13.07.282-16.905-.15-1.562-.282-2.941-.282-4.28m-124.974 56.47h-62.528V88.63h60.2v22.617h-60.2v13.304h63.359v11.973h6.319l33.177-37.584-40.327-45.78zm43.739 59.805c2.38.082 12.024.076 31.56-.599l-14.933-17.731zm-226.301-5.575c4.052.576 17.753 2.007 40.137 3.119l-40.137-43.695zm262.967-30.783 29.605 33.823c4.778-.09 20.891-1.189 28.35-1.727V76.075H405.82zm87.806 29.269c14.551-1.552 43.477-6.107 42.772-11.915-.706-5.809-28.809-10.139-42.772-11.578zM93.664 106.26c-16.41 1.941-33.244 6.413-33.186 10.002.037 2.226 2.172 3.509 3.95 4.109.367.221.827.356 1.394.356a9 9 0 0 1-1.394-.356c-.924-.556-1.264-1.662-1.267-2.555-.014-4.406 18.113-6.818 24.446-6.818-.52.024-18.392 1.963-19.457 6.818-1.064 4.856 16.566 8.177 25.514 9.23zm455.729 3.911c.715.083 1.534.18 2.418.298a10.3 10.3 0 0 0-2.418-.298" clip-rule="evenodd"/></svg>
